X:1
T:Miserere Mei
T:Alessandro Scarlatti edit BMarble
T:Miserere Mei
T:Copyright © 2017 by CPDL.  This edition can be fully distributed, duplicated, performed, and recorded. 
T:Copyright © 2017 by CPDL.  This edition can be fully distributed, duplicated, performed, and recorded. 
T:Copyright © 2017 by CPDL.  This edition can be fully distributed, duplicated, performed, and recorded. 
T:Copyright © 2017 by CPDL.  This edition can be fully distributed, duplicated, performed, and recorded. 
T:Copyright © 2017 by CPDL.  This edition can be fully distributed, duplicated, performed, and recorded. 
T:Copyright © 2017 by CPDL.  This edition can be fully distributed, duplicated, performed, and recorded. 
T:Copyright © 2017 by CPDL.  This edition can be fully distributed, duplicated, performed, and recorded. 
C:Alessandro Scarlatti
C:edit BMarble
Z:Copyright © 2017 by CPDL.  This edition can be fully distributed, duplicated, performed, and recorded.
Z:
%%score [ 1 2 3 4 ]
L:1/8
Q:1/2=72
M:4/2
K:F
V:1 treble nm="S" snm="S."
V:2 treble nm="A" snm="A."
V:3 treble-8 transpose=-12 nm="T" snm="T."
V:4 bass nm="B" snm="B."
V:1
"^Psalm 57: vs. 1, 4:  Have mercy on me, God,have mercy on me. In you I seek refuge.May God send help from heaven to save me,to shame those who trample upon me." A8 B8 | %1
w: Mi- se-|
 A8 A8- | A8 z8 | c8 A8 | (=B12 A2 ^G2) | A8 z8 | z4 A8 A4 | A4 =G4 G8- | G4 F4 F8- | %9
w: re- re,|_|mi- se-|re- * *|re,|mi- se-|re- re me-|* i De-|
[M:3/1] (F4 E2 D2 E8) F8 ||[M:4/2] A12 A4 | (B12 A2 G2 | A12) B4 | A8 =B8 | z4 =B8 A4 | A12 G4 | %16
w: * * * * us,|mi- se-|re- * *|* re|me- i,|mi- se-|re- re|
 (_B8 A8-) | A8 A8 || A6 A2 A4 A4 | =B4 B4 B8 | c4 G4 (G2 A2 _B4) | A8 _A8- | A4 _A4 G8 | F16 | %24
w: me- *|* i;|quo- ni- am in|te con- fi-|dit, con- fi- * *|dit a-|* ni- ma|me-|
 F4 B8 A4 | A4 A8 G2 F2 | E4 F8 E4 | F16 || A8 d4 d4 | f2 e2 d6 c2 f2 e2 | d6 c2 B2 A2 d4- | %31
w: a, a- ni-|ma me- * *||a.|Mi- sit de|cae- * * * * *||
 d4 c6 B2 A4 | d8 z8 | z16 | z4 A4 d4 d4 | f2 e2 d6 c2 f2 e2 | d2 f2 e2 d2- d2 c2 A2 c2 | %37
w: |lo,||mi- sit de|cae- * * * * *||
 B2 A2 F2 G2 A4 c4 | d2 c2 B6 A2 d4- | d4 ^c4 d2 d2 =c2 c2 | B2 B2 A4 z4 d4- | d4 c2 c2 B2 B2 A4 | %42
w: * * * * lo, de|cae- * * * *|* * lo, et li- be-|ra- vit me, et|_ li- be- ra- vit me,|
 z4 z2 A2 d2 d2 d2 d2 | c2 c2 B6 A2 A2 G2 | A8 z4 A4- | A4 A4 A4 =B4 | =B6 B2 B8 | e8 f4 d4- | %48
w: et li- be- ra- vit|me, et li- be- ra- vit|me; de-|* dit in op-|pro- bri- um|con- cul- can-|
 d4 ^c2 =B2 c2 ^G2 A4- | A4 ^G4 A8 | z4 ^F8 F4 | G4 G4 G4 ^G4 | A8 z8 | d4 B4 A8- | (A4 B4) A8 | %55
w: |* tes me,|de- dit|in op- pro- bri-|um|con- cul- can-|* * tes|
 A4 B8 A4 | (A4 G2 ^F2 G8-) | G4 ^F4 F8 |] %58
w: me, con- cul-|can- * * *|* tes me.|
V:2
 F8 D8 | (E12 D2 ^C2) | D8 z8 | E8 F8 | E8 E8- | E8 z8 | E6 E2 E4 D4 | D12 C4 | (C2 =B,2 A,8 B,4 | %9
w: Mi- se-|re- * *|re,|mi- se-|re- re,|_|mi- se- re- re|me- i|De- * * *|
[M:3/1] C16) C8 ||[M:4/2] z8 ^F8- | F4 ^F4 G8- | G4 G4 (^F4 G4-) | (G4 ^F4) G8 | E12 E4 | %15
w: * us,|mi-|* se- re-|* re me- *|* * i,|mi- se-|
 =F12 (E2 D2) | (E12 F4 | E8) ^F8 || ^F6 F2 F4 F4 | G4 G4 G8 | G4 E4 E8 | F8 F8- | F4 F4 F4 _E4- | %23
w: re- re *|me- *|* i;|quo- ni- am in|te con- fi-|dit, con- fi-|dit a-|* ni- ma me-|
 (E4 D4 C8) | D8 F6 _E2 | D16 | C16 | C16 || z16 | D8 A4 A4 | B2 A2 G6 F2 B2 A2 | G2 F2 E4 F4 F4 | %32
w: |a, a- ni-|ma|me-|a.||Mi- sit de|cae- * * * * *|* * * lo, de|
 A2 G2 F6 E2 C2 A2 | G2 F2 G6 A2 G2 F2- | F2 E2 F8 G4 | A4 D4 A4 A4 | B2 A2 G2 F2 E4 C2 D2 | %37
w: cae- * * * * *|||lo, mi- sit de|cae- * * * * * *|
 F4 (D6 C2) F4 | F4 G6 A2 G2 F2 | G8 F6 A2 | G2 G2 F2 F2 E4 z4 | z4 G8 F2 F2 | F2 F2 E4 z4 z2 D2 | %43
w: lo, mi- * sit|de cae- * * *|* lo, et|li- be- ra- vit me,|et li- be-|ra- vit me, et|
 G2 G2 F2 F2 E2 E2 F2 G2 | E8 z4 ^C4- | C4 ^C4 D4 D4 | D4 ^D4 E8 | z4 A8 F4 | (E12 ^F4) | E8 E8 | %50
w: li- be- ra- vit, li- be- ra- vit|me; de-|* dit in op-|pro- bri- um|con- cul-|can- *|tes me,|
 z4 D8 D4 | D4 E4 E6 E2 | E8 A8 | B4 (G8 ^F2 E2 | =F8) E8 | ^F4 D8 D4 | D8 D8 | D16 |] %58
w: de- dit|in op- pro- bri-|um con-|cul- can- * *|* tes|me, con- cul-|can- tes|me.|
V:3
 A8 G8 | (G4 F2 E2) F8- | F8 z8 | e12 d4 | (d4 c2 =B2) c8- | c8 z8 | c6 c2 c4 A4 | B12 B4 | %8
w: Mi- se-|re- * * re,|_|mi- se-|re- * * re,|_|mi- se- re- re|me- i|
 A6 G2 A2 G2 F4 |[M:3/1] G6 F2 G2 A2 _B8 A4 ||[M:4/2] z4 e8 d4 | d12 c4 | (_e8 d8-) | d8 d8 | %14
w: De- * * * *|* * * * * us,|mi- se-|re- re|me- *|* i,|
 z8 ^c8- | c4 ^c4 d8- | d4 d4 (^c4 d4-) | (d4 ^c4) d8 || d6 d2 d4 d4 | d4 d4 (d2 e2 f4) | %20
w: mi-|* se- re-|* re me- *|* * i;|quo- ni- am in|te con- fi- * *|
 e4 c4 c8 | c8 c8- | c4 B4 B8 | (A4 B8 A4) | B8 c8- | c4 c4 B4 B4- | (B4 A4 G8) | A16 || z16 | %29
w: dit, con- fi-|dit a-|* ni- ma|me- * *|a, a-|* ni- ma me-||a.||
 z16 | z16 | z4 A4 d4 d4 | f2 e2 d6 c2 f2 e2 | d6 c2 B2 A2 d2 c2 | B4 c2 A2 B8 | A8 z8 | z8 A8 | %37
w: ||mi- sit de|cae- * * * * *|||lo,|mi-|
 d4 d4 f6 e2 | d6 c2 B2 d2 G4- | G2 E2 e4 A8 | z4 z2 d2 c2 c2 B2 B2 | A4 z4 z4 d4- | %42
w: sit de cae- *||* * * lo,|et li- be- ra- vit|me, et|
 d4 c2 c2 B2 B2 A4 | z2 G2 d2 d2 e4 d4 | ^c8 z4 E4- | E4 E4 ^F4 G4 | A6 A2 ^G8 | z8 A4 =B4 | %48
w: _ li- be- ra- vit me,|et li- be- ra- vit|me; de-|* dit in op-|pro- bri- um|con- cul-|
 (^G4 A2 G2 A2 =B2 =c4) | =B8 ^c8 | z4 A8 A4 | _B4 =c4 d6 d2 | ^c8 z4 d4- | d4 e4 ^c8- | %54
w: can- * * * * *|tes me,|de- dit|in op- pro- bri-|um con-|* cul- can-|
 (c4 d8) ^c4 | d4 G8 A4 | B8 B8 | A16 |] %58
w: * * tes|me, con- cul-|can- tes|me.|
V:4
 D,8 D,8 | ^C,8 D,8- | D,8 z8 | A,8 A,8 | ^G,8 A,8- | A,8 z8 | A,6 A,2 A,4 ^F,4 | G,12 E,4 | %8
w: Mi- se-|re- re,|_|mi- se-|re- re,|_|mi- se- re- re|me- i|
 (F,6 E,2 D,8 |[M:3/1] C,16) F,8 ||[M:4/2] ^C,8 D,8- | D,8 _E,8 | =C,8 D,8- | D,8 G,8 | ^G,8 A,8- | %15
w: De- * *|* us,|mi- se-|* re-|re me-|* i,|mi- se-|
 A,8 B,8 | =G,8 A,8- | A,8 D,8 || D,6 D,2 D,4 D,4 | G,4 G,4 G,8 | C,4 C,4 C,8 | F,8 F,6 _E,2 | %22
w: * re-|re me-|* i;|quo- ni- am in|te con- fi-|dit, con- fi-|dit a- ni-|
 (D,8 _E,8) | F,16 | B,,8 F,8 | ^F,8 G,8 | C,16 | F,16 || z16 | z16 | z16 | z16 | z4 D,4 A,4 A,4 | %33
w: ma _|me-|a, a-|ni- ma|me-|a.|||||mi- sit de|
 B,2 A,2 G,6 F,2 B,2 A,2 | G,4 F,4 B,2 A,2 G,4 | D,8 z8 | z16 | D,8 A,4 A,4 | %38
w: cae- * * * * *||lo,||mi- sit de|
 B,2 A,2 G,6 F,2 E,2 D,2 | E,8 D,8 | z8 z2 A,2 G,2 G,2 | F,2 F,2 E,4 z8 | A,8 G,2 G,2 F,4 | %43
w: cae- * * * * *|* lo,|et li- be-|ra- vit me,|et li- be- ra-|
 E,4 D,2 D,2 C,2 C,2 B,,2 B,,2 | A,,8 z4 A,,4- | A,,4 A,,4 D,4 G,4 | F,6 F,2 E,8 | ^C,8 D,8 | %48
w: vit me, et li- be- ra- vit|me; de-|* dit in op-|pro- bri- um|con- cul-|
 (E,12 ^D,4) | E,8 A,,8 | z4 =D,8 D,4 | G,,4 C,4 B,,6 B,,2 | A,,8 ^F,8 | G,8 A,8- | %54
w: can- *|tes me,|de- dit|in op- pro- bri-|um con-|cul- can-|
 (A,4 ^G,4) A,8 | D,4 B,,8 ^F,,4 | G,,8 G,,8 | D,16 |] %58
w: * * tes|me, con- cul-|can- tes|me.|

